src/assets/outline/Music.svg

<svg width="24" height="24" viewBox="0 0 24 24"  xmlns="http://www.w3.org/2000/svg">
<path d="M6.28016 22.75C4.15016 22.75 2.41016 21.01 2.41016 18.88C2.41016 16.75 4.15016 15.01 6.28016 15.01C8.41016 15.01 10.1502 16.75 10.1502 18.88C10.1502 21.01 8.41016 22.75 6.28016 22.75ZM6.28016 16.51C4.97016 16.51 3.91016 17.57 3.91016 18.88C3.91016 20.19 4.97016 21.25 6.28016 21.25C7.59016 21.25 8.65016 20.19 8.65016 18.88C8.65016 17.57 7.59016 16.51 6.28016 16.51Z" />
<path d="M9.3999 19.6299C8.9899 19.6299 8.6499 19.2899 8.6499 18.8799V6.29989C8.6499 4.71989 9.5999 3.47989 11.1199 3.06989L17.3599 1.36989C18.6299 1.01989 19.6999 1.14989 20.4499 1.72989C21.2099 2.30989 21.5899 3.27989 21.5899 4.60989V16.8099C21.5899 17.2199 21.2499 17.5599 20.8399 17.5599C20.4299 17.5599 20.0899 17.2199 20.0899 16.8099V4.59989C20.0899 4.01989 19.9899 3.25989 19.5399 2.91989C19.0499 2.53989 18.2099 2.68989 17.7499 2.81989L11.5099 4.51989C10.6399 4.75989 10.1499 5.40989 10.1499 6.30989V18.8899C10.1499 19.2899 9.8099 19.6299 9.3999 19.6299Z" />
<path d="M17.7201 20.6699C15.5901 20.6699 13.8501 18.9299 13.8501 16.7999C13.8501 14.6699 15.5901 12.9299 17.7201 12.9299C19.8501 12.9299 21.5901 14.6699 21.5901 16.7999C21.5901 18.9299 19.8501 20.6699 17.7201 20.6699ZM17.7201 14.4299C16.4101 14.4299 15.3501 15.4899 15.3501 16.7999C15.3501 18.1099 16.4101 19.1699 17.7201 19.1699C19.0301 19.1699 20.0901 18.1099 20.0901 16.7999C20.0901 15.4899 19.0301 14.4299 17.7201 14.4299Z" />
<path d="M9.3998 10.27C9.0698 10.27 8.7698 10.05 8.6798 9.72003C8.5698 9.32003 8.7998 8.90003 9.1998 8.79003L20.6398 5.67003C21.0398 5.56003 21.4498 5.80003 21.5598 6.20003C21.6698 6.60003 21.4298 7.01003 21.0298 7.12003L9.5998 10.24C9.5298 10.26 9.4598 10.27 9.3998 10.27Z" />
</svg>

<?xml version="1.0" encoding="UTF-8"?>
<svg width="24" height="24" viewBox="0 0 24 24" xmlns="http://www.w3.org/2000/svg">
 <path d="m6.2802 22.75c-2.13 0-3.87-1.74-3.87-3.87s1.74-3.87 3.87-3.87 3.87 1.74 3.87 3.87-1.74 3.87-3.87 3.87zm0-6.24c-1.31 0-2.37 1.06-2.37 2.37s1.06 2.37 2.37 2.37 2.37-1.06 2.37-2.37-1.06-2.37-2.37-2.37z"/>
 <path d="m9.3999 19.63c-0.41 0-0.75-0.34-0.75-0.75v-12.58c0-1.58 0.95-2.82 2.47-3.23l6.24-1.7c1.27-0.35 2.34-0.22 3.09 0.36 0.76 0.58 1.14 1.55 1.14 2.88v12.2c0 0.41-0.34 0.75-0.75 0.75s-0.75-0.34-0.75-0.75v-12.21c0-0.58-0.1-1.34-0.55-1.68-0.49-0.38-1.33-0.23-1.79-0.1l-6.24 1.7c-0.87 0.24-1.36 0.89-1.36 1.79v12.58c0 0.4-0.34 0.74-0.75 0.74z"/>
 <path d="m17.72 20.67c-2.13 0-3.87-1.74-3.87-3.87s1.74-3.87 3.87-3.87 3.87 1.74 3.87 3.87-1.74 3.87-3.87 3.87zm0-6.24c-1.31 0-2.37 1.06-2.37 2.37s1.06 2.37 2.37 2.37 2.37-1.06 2.37-2.37-1.06-2.37-2.37-2.37z"/>
 <path d="m9.3998 10.27c-0.33 0-0.63-0.22-0.72-0.54997-0.11-0.4 0.12-0.82 0.52-0.93l11.44-3.12c0.4-0.11 0.81 0.13 0.92 0.53s-0.13 0.81-0.53 0.92l-11.43 3.12c-0.07 0.02-0.14 0.03-0.2 0.03z"/>
</svg>
